src/images/milmil_logo.svg

<svg fill="none" height="80" viewBox="0 0 80 80" width="80" xmlns="http://www.w3.org/2000/svg" xmlns:xlink="http://www.w3.org/1999/xlink"><clipPath id="a"><rect height="80" rx="40" width="80"/></clipPath><g clip-path="url(#a)"><rect fill="#4fc4f9" height="80" rx="40" width="80"/><g fill="#000"><path d="m69.2905 82.6433 14.9617-8.6209-5.7043 8.3846 6.7021 7.2339z"/><path d="m45.0062 74.5016c-.2582.7669-.4745 1.5473-.648 2.3378-.1814.7792-.3291 1.5584-.4587 2.3377-.254 1.5584-.4371 3.1108-.5494 4.6572-.2216 3.1021-.2112 6.2165.0311 9.3171l.8552-1.4364c-.6246.4-1.2362.826-1.8452 1.2493l-.9045.6598-.8916.6805c-.5883.4702-1.1714.9429-1.739 1.4494-.5784.5071-1.1303 1.0438-1.6535 1.6078.7582-.1269 1.5092-.2943 2.2496-.5013.7334-.1922 1.4487-.4208 2.164-.6545l1.0575-.3715 1.0366-.3948c.6894-.2753 1.3814-.5506 2.0552-.8545l.7775-.3455.0855-1.0883c.2423-3.1006.2527-6.215.0311-9.3171-.114-1.5585-.2928-3.1169-.5494-4.6572-.1296-.7793-.2773-1.5585-.4561-2.3377-.1747-.7902-.391-1.5705-.6479-2.3378z"/><path d="m56.9296 77.0989c-.2588.7669-.4759 1.5473-.6505 2.3377-.1814.7793-.3292 1.5585-.4588 2.3377-.2539 1.5585-.4362 3.123-.5468 4.6936s-.1624 3.1343-.1555 4.691c0 1.5585.0622 3.1299.1892 4.6936l.8527-1.4312c-.6246.4-1.2337.826-1.8427 1.2494l-.9045.6597-.8941.6806c-.5858.4675-1.1715.9402-1.7365 1.4493-.5791.5053-1.1319 1.0403-1.656 1.6027.7571-.128 1.5071-.2953 2.2469-.5014.7361-.1948 1.4514-.4233 2.1641-.6571l1.0574-.3714 1.0367-.3923c.6893-.2779 1.3813-.5532 2.0577-.8571l.7775-.3403.0882-1.0909c.1269-1.5585.184-3.1169.1917-4.6936.0078-1.5766-.0466-3.1169-.1581-4.691-.1114-1.574-.2928-3.1169-.5468-4.6936-.1296-.7792-.2773-1.5584-.4587-2.3377-.1755-.7904-.3935-1.5708-.6531-2.3377z"/><path d="m18 22.0803 25.2937 2.132 4.2326 11.2336-21.4459 8.0803z"/></g><path d="m55.6851 83.8516h14.6274c.644 0 1.2617-.2564 1.7171-.7128.4554-.4565.7112-1.0755.7112-1.721v-35.3825c0-6.7776-2.6856-13.2777-7.4664-18.0711s-11.2654-7.4877-18.0278-7.4905h-.0545c-5.8686 0-11.4968 2.3365-15.6466 6.4955-4.1497 4.1591-6.481 9.7999-6.481 15.6816v10.5041c0 8.1427 3.2274 15.9518 8.9723 21.7095 5.7449 5.7578 13.5367 8.9924 21.6612 8.9924z" fill="#fff"/><path d="m49.1022 54.3788c-3.3149 0-6.0022-2.6873-6.0022-6.0023 0-3.3149 2.6873-6.0022 6.0022-6.0022 3.315 0 6.0023 2.6873 6.0023 6.0022 0 3.315-2.6873 6.0023-6.0023 6.0023z" fill="#ffaeae"/><circle cx="45.2823" cy="40.1917" fill="#000" r="8.73054"/><circle cx="43.1011" cy="36.9178" fill="#fff" r="3.27395"/></g></svg>

<svg width="80" height="80" viewBox="0 0 80 80" fill="none" xmlns="http://www.w3.org/2000/svg">
<g clip-path="url(#clip0_1254_2064)">
<rect width="80" height="80" rx="40" fill="#4FC4F9"/>
<path d="M69.2905 82.6433L84.2522 74.0224L78.5479 82.407L85.25 89.6409L69.2905 82.6433Z" fill="black"/>
<path d="M45.0062 74.5016C44.748 75.2685 44.5317 76.0489 44.3582 76.8394C44.1768 77.6186 44.0291 78.3978 43.8995 79.1771C43.6455 80.7355 43.4624 82.2879 43.3501 83.8343C43.1285 86.9364 43.1389 90.0508 43.3812 93.1514L44.2364 91.715C43.6118 92.115 43.0002 92.541 42.3912 92.9643L41.4867 93.6241L40.5951 94.3046C40.0068 94.7748 39.4237 95.2475 38.8561 95.754C38.2777 96.2611 37.7258 96.7978 37.2026 97.3618C37.9608 97.2349 38.7118 97.0675 39.4522 96.8605C40.1856 96.6683 40.9009 96.4397 41.6162 96.206L42.6737 95.8345L43.7103 95.4397C44.3997 95.1644 45.0917 94.8891 45.7655 94.5852L46.543 94.2397L46.6285 93.1514C46.8708 90.0508 46.8812 86.9364 46.6596 83.8343C46.5456 82.2758 46.3668 80.7174 46.1102 79.1771C45.9806 78.3978 45.8329 77.6186 45.6541 76.8394C45.4794 76.0492 45.2631 75.2689 45.0062 74.5016V74.5016Z" fill="black"/>
<path d="M56.9296 77.0989C56.6708 77.8658 56.4537 78.6462 56.2791 79.4366C56.0977 80.2159 55.9499 80.9951 55.8203 81.7743C55.5664 83.3328 55.3841 84.8973 55.2735 86.4679C55.1629 88.0385 55.1111 89.6022 55.118 91.1589C55.118 92.7174 55.1802 94.2888 55.3072 95.8525L56.1599 94.4213C55.5353 94.8213 54.9262 95.2473 54.3172 95.6707L53.4127 96.3304L52.5186 97.011C51.9328 97.4785 51.3471 97.9512 50.7821 98.4603C50.203 98.9656 49.6502 99.5006 49.1261 100.063C49.8832 99.935 50.6332 99.7677 51.373 99.5616C52.1091 99.3668 52.8244 99.1383 53.5371 98.9045L54.5945 98.5331L55.6312 98.1408C56.3205 97.8629 57.0125 97.5876 57.6889 97.2837L58.4664 96.9434L58.5546 95.8525C58.6815 94.294 58.7386 92.7356 58.7463 91.1589C58.7541 89.5823 58.6997 88.042 58.5882 86.4679C58.4768 84.8939 58.2954 83.351 58.0414 81.7743C57.9118 80.9951 57.7641 80.2159 57.5827 79.4366C57.4072 78.6462 57.1892 77.8658 56.9296 77.0989Z" fill="black"/>
<path d="M18 22.0803L43.2937 24.2123L47.5263 35.4459L26.0804 43.5262L18 22.0803Z" fill="black"/>
<path d="M55.6851 83.8516H70.3125C70.9565 83.8516 71.5742 83.5952 72.0296 83.1388C72.485 82.6823 72.7408 82.0633 72.7408 81.4178V46.0353C72.7408 39.2577 70.0552 32.7576 65.2744 27.9642C60.4936 23.1708 54.009 20.4765 47.2466 20.4737H47.1921C41.3235 20.4737 35.6953 22.8102 31.5455 26.9692C27.3958 31.1283 25.0645 36.7691 25.0645 42.6508V53.1549C25.0645 61.2976 28.2919 69.1067 34.0368 74.8644C39.7817 80.6222 47.5735 83.8568 55.698 83.8568L55.6851 83.8516Z" fill="white"/>
<path d="M49.1022 54.3788C45.7873 54.3788 43.1 51.6915 43.1 48.3765C43.1 45.0616 45.7873 42.3743 49.1022 42.3743C52.4172 42.3743 55.1045 45.0616 55.1045 48.3765C55.1045 51.6915 52.4172 54.3788 49.1022 54.3788Z" fill="#FFAEAE"/>
<circle cx="45.2823" cy="40.1917" r="8.73054" fill="black"/>
<circle cx="43.1011" cy="36.9178" r="3.27395" fill="white"/>
</g>
<defs>
<clipPath id="clip0_1254_2064">
<rect width="80" height="80" rx="40" fill="white"/>
</clipPath>
</defs>
</svg>
